svg/document.svg

<svg xmlns="http://www.w3.org/2000/svg" viewBox="0 0 32 32"><path style="text-indent:0;text-align:start;line-height:normal;text-transform:none;block-progression:tb;-inkscape-font-specification:Bitstream Vera Sans" d="M6 3v26h20V9.594l-.28-.313-6-6-.314-.28H6zm2 2h10v6h6v16H8V5zm12 1.438L22.563 9H20V6.437zM11 13v2h10v-2H11zm0 4v2h10v-2H11zm0 4v2h10v-2H11z" color="#000" overflow="visible" font-family="Bitstream Vera Sans"/></svg>

<svg xmlns="http://www.w3.org/2000/svg" viewBox="0 0 32 32" enable-background="new 0 0 32 32"><path d="M 6 3 L 6 4 L 6 28 L 6 29 L 7 29 L 25 29 L 26 29 L 26 28 L 26 10 L 26 9.59375 L 25.71875 9.28125 L 19.71875 3.28125 L 19.40625 3 L 19 3 L 7 3 L 6 3 z M 8 5 L 18 5 L 18 10 L 18 11 L 19 11 L 24 11 L 24 27 L 8 27 L 8 5 z M 20 6.4375 L 22.5625 9 L 20 9 L 20 6.4375 z M 11 13 L 11 15 L 21 15 L 21 13 L 11 13 z M 11 17 L 11 19 L 21 19 L 21 17 L 11 17 z M 11 21 L 11 23 L 21 23 L 21 21 L 11 21 z" color="#000" overflow="visible" enable-background="accumulate"/></svg>
